communes/6413.svg

<?xml version="1.0" encoding="UTF-8" standalone="no"?>
<!-- Created with Inkscape (http://www.inkscape.org/) -->

<svg
   xmlns:dc="http://purl.org/dc/elements/1.1/"
   xmlns:cc="http://creativecommons.org/ns#"
   xmlns:rdf="http://www.w3.org/1999/02/22-rdf-syntax-ns#"
   xmlns:svg="http://www.w3.org/2000/svg"
   xmlns="http://www.w3.org/2000/svg"
   xmlns:sodipodi="http://sodipodi.sourceforge.net/DTD/sodipodi-0.dtd"
   xmlns:inkscape="http://www.inkscape.org/namespaces/inkscape"
   version="1.0"
   width="208.86046"
   height="244.65999"
   id="svg2780"
   inkscape:version="0.92.5 (2060ec1f9f, 2020-04-08)"
   sodipodi:docname="Rochefort-blazon.svg">
  <metadata
     id="metadata27">
    <rdf:RDF>
      <cc:Work
         rdf:about="">
        <dc:format>image/svg+xml</dc:format>
        <dc:type
           rdf:resource="http://purl.org/dc/dcmitype/StillImage" />
        <dc:title />
      </cc:Work>
    </rdf:RDF>
  </metadata>
  <sodipodi:namedview
     pagecolor="#ffffff"
     bordercolor="#666666"
     borderopacity="1"
     objecttolerance="10"
     gridtolerance="10"
     guidetolerance="10"
     inkscape:pageopacity="0"
     inkscape:pageshadow="2"
     inkscape:window-width="3287"
     inkscape:window-height="1417"
     id="namedview25"
     showgrid="false"
     inkscape:zoom="1.4142136"
     inkscape:cx="51.071139"
     inkscape:cy="68.603949"
     inkscape:window-x="-8"
     inkscape:window-y="-8"
     inkscape:window-maximized="1"
     inkscape:current-layer="svg2780"
     inkscape:measure-start="104.255,149.787"
     inkscape:measure-end="104.255,126.383"
     showguides="false"
     inkscape:object-paths="true"
     inkscape:snap-intersection-paths="true"
     inkscape:snap-object-midpoints="true">
    <sodipodi:guide
       position="104.43024,205.10638"
       orientation="25.957447,0"
       id="guide7901"
       inkscape:locked="false" />
    <sodipodi:guide
       position="49.361702,126.17021"
       orientation="0,45.957446"
       id="guide7903"
       inkscape:locked="false" />
    <sodipodi:guide
       position="41.085938,203.89045"
       orientation="0,-112.33594"
       id="guide8631"
       inkscape:locked="false" />
    <sodipodi:guide
       position="-142.12846,223.77523"
       orientation="0,100.40916"
       id="guide8718"
       inkscape:locked="false" />
    <sodipodi:guide
       position="20.884781,301.58103"
       orientation="49.14392,0"
       id="guide8743"
       inkscape:locked="false" />
    <sodipodi:guide
       position="104.43024,126.17021"
       orientation="-117.48978,103.43021"
       id="guide8777"
       inkscape:locked="false" />
  </sodipodi:namedview>
  <defs
     id="defs2782" />
  <path
     id="path4212-6"
     style="fill:#000000;fill-opacity:1;fill-rule:evenodd;stroke:#000000;stroke-width:1.99999988;stroke-linecap:butt;stroke-miterlimit:4;stroke-dashoffset:0;stroke-opacity:1"
     d="M 1.000033,149.10355 V 0.99999834 c 68.953472,0 137.906947,0 206.860417,0 V 149.10355 c 0,51.44535 -51.71515,94.56785 -103.43021,94.56785 -51.71506,0 -103.430207,-43.1225 -103.430207,-94.56785 z"
     inkscape:connector-curvature="0"
     sodipodi:nodetypes="sccscs" />
  <g
     id="g8825">
    <path
       sodipodi:nodetypes="csccc"
       inkscape:connector-curvature="0"
       d="M 40.769533,118.48978 V 140.33 c 0,34.58339 31.83038,63.57186 63.660707,63.57186 V 118.48978 H 40.769533"
       style="fill:#cc2918;fill-opacity:1;fill-rule:evenodd;stroke:#000000;stroke-width:1;stroke-linecap:butt;stroke-miterlimit:4;stroke-dasharray:none;stroke-dashoffset:0;stroke-opacity:1"
       id="path4212-6-9" />
    <path
       inkscape:connector-curvature="0"
       id="path8677"
       d="M 40.769533,118.48978 H 104.43024 V 40.769538 H 40.769533 Z"
       style="opacity:1;fill:#feeb00;fill-opacity:1;stroke:#000000;stroke-width:1;stroke-miterlimit:4;stroke-dasharray:none;stroke-dashoffset:4.57999992;stroke-opacity:1" />
    <path
       sodipodi:nodetypes="csccc"
       inkscape:connector-curvature="0"
       d="m 168.09095,118.48978 v 21.84021 c 0,34.58339 -31.83038,63.57186 -63.66071,63.57186 v -85.41207 h 63.66071"
       style="fill:#feeb00;fill-opacity:1;fill-rule:evenodd;stroke:#000000;stroke-width:1;stroke-linecap:butt;stroke-miterlimit:4;stroke-dasharray:none;stroke-dashoffset:0;stroke-opacity:1"
       id="path4212-6-9-9" />
    <path
       inkscape:connector-curvature="0"
       id="path8677-6"
       d="M 168.09095,118.48978 H 104.43024 V 40.769538 h 63.66071 z"
       style="opacity:1;fill:#cc2918;fill-opacity:1;stroke:#000000;stroke-width:1;stroke-miterlimit:4;stroke-dasharray:none;stroke-dashoffset:4.57999992;stroke-opacity:1" />
  </g>
  <circle
     style="opacity:1;fill:#feeb00;fill-opacity:1;stroke:#000000;stroke-width:1;stroke-miterlimit:4;stroke-dasharray:none;stroke-dashoffset:4.57999992;stroke-opacity:1"
     id="path8720"
     cx="104.43024"
     cy="20.884758"
     r="15.234488" />
  <circle
     style="opacity:1;fill:#feeb00;fill-opacity:1;stroke:#000000;stroke-width:1;stroke-miterlimit:4;stroke-dasharray:none;stroke-dashoffset:4.57999992;stroke-opacity:1"
     id="path8720-0"
     cx="20.884781"
     cy="20.884756"
     r="15.234488" />
  <circle
     style="opacity:1;fill:#feeb00;fill-opacity:1;stroke:#000000;stroke-width:1;stroke-miterlimit:4;stroke-dasharray:none;stroke-dashoffset:4.57999992;stroke-opacity:1"
     id="path8720-0-4"
     cx="20.884781"
     cy="104.48978"
     r="15.234488" />
  <circle
     style="opacity:1;fill:#feeb00;fill-opacity:1;stroke:#000000;stroke-width:1;stroke-miterlimit:4;stroke-dasharray:none;stroke-dashoffset:4.57999992;stroke-opacity:1"
     id="path8720-9"
     cx="104.43024"
     cy="223.47084"
     r="15.234488" />
  <circle
     style="opacity:1;fill:#feeb00;fill-opacity:1;stroke:#000000;stroke-width:1;stroke-miterlimit:4;stroke-dasharray:none;stroke-dashoffset:4.57999992;stroke-opacity:1"
     id="path8720-9-9"
     cx="34.382462"
     cy="185.93083"
     r="15.234488" />
  <circle
     style="opacity:1;fill:#feeb00;fill-opacity:1;stroke:#000000;stroke-width:1;stroke-miterlimit:4;stroke-dasharray:none;stroke-dashoffset:4.57999992;stroke-opacity:1"
     id="path8720-0-2"
     cx="-187.97571"
     cy="20.884756"
     r="15.234488"
     transform="scale(-1,1)" />
  <circle
     style="opacity:1;fill:#feeb00;fill-opacity:1;stroke:#000000;stroke-width:1;stroke-miterlimit:4;stroke-dasharray:none;stroke-dashoffset:4.57999992;stroke-opacity:1"
     id="path8720-0-4-3"
     cx="-187.97571"
     cy="104.48978"
     r="15.234488"
     transform="scale(-1,1)" />
  <circle
     style="opacity:1;fill:#feeb00;fill-opacity:1;stroke:#000000;stroke-width:1;stroke-miterlimit:4;stroke-dasharray:none;stroke-dashoffset:4.57999992;stroke-opacity:1"
     id="path8720-9-9-1"
     cx="-174.47803"
     cy="185.93083"
     r="15.234488"
     transform="scale(-1,1)" />
</svg>

<?xml version="1.0" encoding="UTF-8"?>
<svg version="1.0" viewBox="0 0 208.86 244.66" xmlns="http://www.w3.org/2000/svg" xmlns:cc="http://creativecommons.org/ns#" xmlns:dc="http://purl.org/dc/elements/1.1/" xmlns:rdf="http://www.w3.org/1999/02/22-rdf-syntax-ns#">
<metadata>
<rdf:RDF>
<cc:Work rdf:about="">
<dc:format>image/svg+xml</dc:format>
<dc:type rdf:resource="http://purl.org/dc/dcmitype/StillImage"/>
<dc:title/>
</cc:Work>
</rdf:RDF>
</metadata>
<path d="m1 149.1v-148.1h206.86v148.1c0 51.445-51.715 94.568-103.43 94.568s-103.43-43.122-103.43-94.568z" fill-rule="evenodd" stroke="#000" stroke-width="2"/>
<g stroke="#000">
<path d="m40.77 118.49v21.84c0 34.583 31.83 63.572 63.661 63.572v-85.412h-63.661" fill="#cc2918" fill-rule="evenodd"/>
<path d="m40.77 118.49h63.661v-77.72h-63.661z" fill="#feeb00" stroke-dashoffset="4.58"/>
<path d="m168.09 118.49v21.84c0 34.583-31.83 63.572-63.661 63.572v-85.412h63.661" fill="#feeb00" fill-rule="evenodd"/>
<path d="m168.09 118.49h-63.661v-77.72h63.661z" fill="#cc2918" stroke-dashoffset="4.58"/>
</g>
<circle cx="104.43" cy="20.885" r="15.234" fill="#feeb00" stroke="#000" stroke-dashoffset="4.58"/>
<circle cx="20.885" cy="20.885" r="15.234" fill="#feeb00" stroke="#000" stroke-dashoffset="4.58"/>
<circle cx="20.885" cy="104.49" r="15.234" fill="#feeb00" stroke="#000" stroke-dashoffset="4.58"/>
<circle cx="104.43" cy="223.47" r="15.234" fill="#feeb00" stroke="#000" stroke-dashoffset="4.58"/>
<circle cx="34.382" cy="185.93" r="15.234" fill="#feeb00" stroke="#000" stroke-dashoffset="4.58"/>
<circle transform="scale(-1,1)" cx="-187.98" cy="20.885" r="15.234" fill="#feeb00" stroke="#000" stroke-dashoffset="4.58"/>
<circle transform="scale(-1,1)" cx="-187.98" cy="104.49" r="15.234" fill="#feeb00" stroke="#000" stroke-dashoffset="4.58"/>
<circle transform="scale(-1,1)" cx="-174.48" cy="185.93" r="15.234" fill="#feeb00" stroke="#000" stroke-dashoffset="4.58"/>
</svg>
